X:1
T:Title
%%score 1 2 3 4
L:1/8
M:3/4
K:G
V:1 treble nm="Choir Aahs"
V:2 treble nm="Choir Aahs"
V:3 treble nm="Choir Aahs"
V:4 bass nm="Choir Aahs"
V:1
 B2 | G2 B2 d2 | B>A G2 A2 | G>A B2 B2 | d4 d2 | d2 c2 B2 | c2 B2 F>G | A6 | z2 z2 A2 | G4 c2 | %10
 d4 B2 | cd cB G2 | A4 d2 | B2 G2 B2 | A2 A2 Bc | B6 |] %16
V:2
 D2 | G4 G2 | G4 E2 | D4 G2 | F4 D2 | D2 G2 G2 | E2 D3 E | F6 | z2 z2 D2 | D4 G2 | F4 D2 | %11
 CD ED D2 | D4 D2 | D4 D2 | E2 D4 | D6 |] %16
V:3
 G,2 | D>E D2 B,2 | G,>A, B,2 C2 | D3 C B,2 | A,4 A,2 | B,2[K:treble] E2 D2 | A,2 D2 ^C2 | D6 | %8
 z2 z2[K:bass] D2 | B,>C B,2 G,2 | A,4 B,2 | CB, A,G, B,2 | D4 A,2 | B,>[K:treble]C D2 B,2 | %14
 C2 A,4 | G,6 |] %16
V:4
 G,,2 | G,4 G,2 | E,4 C,2 | G,4 G,,2 | D,4 D,2 | G,2 C,2 G,,2 | F,2 G,2 A,2 | D,6 | z2 z2 D,2 | %9
 G,>F, E,2 G,2 | D,4 G,2 | A,G, F,E, G,2 | D,4 D,2 | G,4 G,2 | C,2 D,4 | G,,6 |] %16

